static/assets/img/icons/theme/general/update.svg

<svg height="24" viewBox="0 0 24 24" width="24" xmlns="http://www.w3.org/2000/svg"><g fill="none" fill-rule="evenodd"><path d="m0 0h24v24h-24z" opacity="0"/><path d="m8.43296491 7.17429118.97485836.68260318c.08834304.06185846.1543175.15062292.18807943.25304896.08644751.26226216-.05607843.5449472-.31834059.63139471l-3.38676645 1.11635439c-.04610533.01519735-.09417813.02359928-.14270502.02494127-.27603684.00763371-.50599725-.20995003-.51363096-.48598687l-.09835834-3.55666505c-.00296709-.10729099.02866979-.21268903.0902329-.30061026.15838876-.22620259.47016165-.28117656.69636424-.12278781l.80640394.56465012c1.43636156-1.25940958 3.29487818-1.98123382 5.27089758-1.98123382 4.418278 0 8 3.581722 8 8s-3.581722 8-8 8-8-3.581722-8-8h2c0 3.3137085 2.6862915 6 6 6s6-2.6862915 6-6-2.6862915-6-6-6c-1.3114664 0-2.55232754.42282109-3.56703509 1.17429118z" fill="#000" fill-rule="nonzero"/></g></svg>

<svg width="24px" height="24px" viewBox="0 0 24 24" version="1.1" xmlns="http://www.w3.org/2000/svg" xmlns:xlink="http://www.w3.org/1999/xlink">
    <title>Icon For Update</title>
    <g stroke="none" stroke-width="1" fill="none" fill-rule="evenodd">
        <rect opacity="0" x="0" y="0" width="24" height="24"></rect>
        <path d="M8.43296491,7.17429118 L9.40782327,7.85689436 C9.49616631,7.91875282 9.56214077,8.00751728 9.5959027,8.10994332 C9.68235021,8.37220548 9.53982427,8.65489052 9.27756211,8.74133803 L5.89079566,9.85769242 C5.84469033,9.87288977 5.79661753,9.8812917 5.74809064,9.88263369 C5.4720538,9.8902674 5.24209339,9.67268366 5.23445968,9.39664682 L5.13610134,5.83998177 C5.13313425,5.73269078 5.16477113,5.62729274 5.22633424,5.53937151 C5.384723,5.31316892 5.69649589,5.25819495 5.92269848,5.4165837 L6.72910242,5.98123382 C8.16546398,4.72182424 10.0239806,4 12,4 C16.418278,4 20,7.581722 20,12 C20,16.418278 16.418278,20 12,20 C7.581722,20 4,16.418278 4,12 L6,12 C6,15.3137085 8.6862915,18 12,18 C15.3137085,18 18,15.3137085 18,12 C18,8.6862915 15.3137085,6 12,6 C10.6885336,6 9.44767246,6.42282109 8.43296491,7.17429118 Z" fill="#000000" fill-rule="nonzero"></path>
    </g>
</svg>
